X:1
T:O to Abide in Jesus
T:O to Abide in Jesus
T:William James Kirkpatrick
T:Frances Jane (Franny) Crosby, 1896
T:Public Domain Courtesy of the Cyber Hymnal™
C:William James Kirkpatrick
Z:Public Domain
Z:Courtesy of the Cyber Hymnal™
%%score 1 2
L:1/8
M:6/4
K:Eb
V:1 treble 
V:2 bass 
V:1
 [EG]3 [E^F] [EG]2 [EA]4 [E=F]2 | [EG]6 [B,E]4 z2 | [EB]3 [E=A] [EB]2 [Ec]4 [E_A]2 | %3
w: 1.~O to a- bide in|Je- sus,|O to be His a-|
w: 2.~O to a- bide in|Je- sus,|Ne- ver to faint nor|
w: 3.~O to be more like|Je- sus,|Ear- nest when- e’er I|
 [EG]6- [EG]4 z2 | [EB]3 [E=A] [EB]2 [Ge]4 [Ec]2 | [EB]6 [EG]4 z2 | [EB]3 [DA] [EG]2 [FA]4 [EG]2 | %7
w: lone; *|Close to the fount of|bless- ing,|Close to my Sav- ior’s|
w: fall; *|Cling- ing to Him who|loves me,|Trust- ing my all in|
w: pray; *|In- to His per- fect|like- ness|Grow- ing from day to|
 [DF]6- [DF]4 z2 | [DF]3 [^C=E] [DF]2 [FA]4 [DF]2 | [EG]6 [GB]4 z2 | [Ac]3 [A=B] [Ac]2 | %11
w: throne. *|O for an ear- nest|long- ing,|In- to His|
w: all. *|O for a heart to|praise Him,|O for a|
w: day, *|O for a faith to|bear me,|Ev- er with|
 [Ae]4 [Ac]2 | [GB]6- [GB]4 z2 | [Ge]3 [Ge] [Ge]2 [Ge]4 [Ge]2 | [Ee]6 !fermata![^F=A]6 | %15
w: life to|grow; *|O for a deep- er|yearn- ing,|
w: tongue to|sing *|Glo- ry to Him who|saves me,|
w: tire- less|wing, *|Home where the blest are|wait- ing,|
 [GB]3 [FA] [EG]2 [DA]4 [B,D]2 | [B,E]6- [B,E]4 z2 |] %17
w: More of its joy to|know. *|
w: Je- sus my Lord and|king. *|
w: Home where the an- gels|sing. *|
V:2
 [E,B,]3 [E,=A,] [E,B,]2 [E,C]4 [E,_C]2 | [E,B,]6 [E,G,]4 z2 | %2
 [E,G,]3 [E,^F,] [E,G,]2 [E,A,]4 [E,C]2 | [E,B,]6- [E,B,]4 z2 | %4
 [E,G,]3 [E,^F,] [E,G,]2 [E,B,]4 [E,A,]2 | [E,G,]6 [E,B,]4 z2 | %6
 [G,B,]3 [F,B,] [E,B,]2 [D,B,]4 [E,B,]2 | [B,,B,]6- [B,,B,]4 z2 | %8
 [B,,B,]3 [B,,B,] [B,,B,]2 [B,,B,]4 [B,,B,]2 | [E,B,]6 [E,E]4 z2 | [A,E]3 [A,D] [A,E]2 | %11
 [A,C]4 [A,E]2 | [E,E]6- [E,E]4 z2 | [E,B,]3 [E,B,] [E,B,]2 [_D,B,]4 [D,B,]2 | %14
 [C,A,]6 !fermata![_C,E]6 | [B,,E]3 [B,,B,] [B,,B,]2 [B,,F,]4 [B,,A,]2 | [E,G,]6- [E,G,]4 z2 |] %17

